X:1
T:Title
%%score { ( 1 2 ) | ( 3 4 ) }
L:1/8
Q:1/4=112
M:3/4
K:Eb
V:1 treble nm="Grand Piano"
V:2 treble 
V:3 bass 
V:4 bass 
V:1
 z2 F2 _G2 | G2 A2 .[_DGB]2 | [EB]2 z2 [=B,FA]2 | [B,EG]4 z2 | [B,FB]2 [E=A]2 [DB]2 | B2 =A2 B2 | %6
 d4 z2 | [DB]4 z2 | c4 z2 | d2 c2 B2 | B2 e2 d2 | c4 z2 | B4 z2 | [B,EG]4 [A,EA]2 | %14
 [EB]2 [DF]2 [B,DG]2 | [G,E]4 z2 | F2 z2 z2 | [B,FA]4 [B,EG]2 | [Ec]4 [Ec]2 | B4 z2 | B2 c2 d2 | %21
 e2 d2 c2 | d4 z2 | [DB]4 z2 | [EG]2 [DF]2 [B,E]2 | [DB]2 z2 z2 | [A,EA]4 B2 | c4 z2 | %28
 e2 d2 [Ec]2 | B2 E2 [CEA]2 | G4 z2 | [G,E]4 z2 |] %32
V:2
 E4 z2 | x6 | C4 z2 | x6 | x6 | x6 | z2 G,2 c2 | x6 | z2 =E2 c2 | x6 | x6 | x6 | z2 C2 [B,DA]2 | %13
 x6 | x6 | x6 | [B,D]4 [B,FA]2 | x6 | x6 | x6 | x6 | x6 | z2 G,2 c2 | x6 | x6 | %25
 B,2- [B,FA]2 [B,EG]2 | x6 | x6 | x6 | x6 | [B,E]2 C2 [A,DF]2 | x6 |] %32
V:3
 G,2 A,2 [E,A,E]2 | [E,E]2- [E,CE]2 z F | z2 E2 A,,2 | E,4 z2 | D,2 [C,F,]2 [B,,F,]2 | %5
 [G,B,E]4 [G,B,=E]2 | [F,F]4 [F,=A,E]2 | [B,,B,]4 z2 | [A,E]2 [G,B,]2 [=A,CF]2 | %9
 F2- [=A,EF]2 [_A,DF]2 | [G,B,E]4 [G,=B,F]2 | [A,CE]4 z2 | [G,E]2 _G,2 F,2 | E,2 _D,2 C,2 | %14
 G,2 z2 z2 | E,4 z2 | z2[K:treble] B2[K:bass] D,2 | E,4 E,2 | A,4 [A,,A,]2 | [E,G,E]4 z2 | %20
 D2 z2 z2 | [G,B,E]4 [_G,B,E]2 | [F,F]4 z2 | [B,,B,]4 z2 | B,4 z2 | F,2 D,2 E,2 | C,4 [E,G,E]2 | %27
 [A,E]4 z2 | C2 B,2 [C,A,]2 | [E,E]2 z2 z2 | z2 G,2 B,,2 | E,4 z2 |] %32
V:4
 E,4 z2 | B,2 z2 E,2 | A,,4 z2 | x6 | x6 | x6 | B,2 z2 z2 | x6 | x6 | B,2 z2 z2 | x6 | x6 | x6 | %13
 x6 | B,,2- [B,,A,]2 B,,2 | x6 | B,,4[K:treble][K:bass] z2 | x6 | x6 | x6 | %20
 [B,F]2- [B,EF]2 [A,B,F]2 | x6 | B,2 z2 [F,=A,E]2 | x6 | E,2 A,2 G,2 | x6 | x6 | x6 | [A,,E]4 z2 | %29
 G,2- [C,G,]2 F,,2 | B,,4 z2 | x6 |] %32

